images/d-nose.svg

<svg fill="none" height="208" viewBox="0 0 127 208" width="127" xmlns="http://www.w3.org/2000/svg"><path d="m63.4307 207.823c43.7663 0 63.0353-31.38 63.0353-69.642v-138.181h-40.739v134.878c0 28.077-9.359 37.711-27.251 37.711-11.561 0-22.2962-6.331-30.2788-21.195l-27.801418 20.645c13.487818 23.672 33.306718 35.784 63.034918 35.784z" fill="#333"/></svg>

<svg width="127" height="208" viewBox="0 0 127 208" fill="none" xmlns="http://www.w3.org/2000/svg">
<path d="M63.4307 207.823C107.197 207.823 126.466 176.443 126.466 138.181V0H85.727V134.878C85.727 162.955 76.368 172.589 58.476 172.589C46.915 172.589 36.1798 166.258 28.1972 151.394L0.395782 172.039C13.8836 195.711 33.7025 207.823 63.4307 207.823Z" fill="#333333"/>
</svg>
